public/logo_impact_co2.svg

<svg width="82" height="33" viewBox="0 0 82 33" fill="none" xmlns="http://www.w3.org/2000/svg">
<g clip-path="url(#clip0_9231_35641)">
<path fill-rule="evenodd" clip-rule="evenodd" d="M33.5242 0V33H0.0664062V0H33.5242ZM12.8856 1.57143H31.931V20.3451C30.8215 19.8195 29.5781 19.5251 28.265 19.5251C27.6193 19.5251 26.9905 19.5964 26.3861 19.7312C26.7369 18.7168 26.9272 17.6291 26.9272 16.4976C26.9272 10.968 22.3823 6.48529 16.776 6.48529C15.6288 6.48529 14.526 6.67301 13.4976 7.01894C13.6343 6.42288 13.7064 5.80264 13.7064 5.1658C13.7064 3.87912 13.4119 2.66033 12.8856 1.57143ZM1.65964 10.0337V1.57143H10.1062C10.8664 2.57364 11.3166 3.81788 11.3166 5.1658C11.3166 8.48287 8.59027 11.1719 5.22718 11.1719C3.89472 11.1719 2.66222 10.7498 1.65964 10.0337ZM1.65964 12.755V31.4286H20.5807C20.0707 30.3535 19.7858 29.1538 19.7858 27.8884C19.7858 27.2365 19.8614 26.602 20.0045 25.9929C18.9903 26.3283 17.9046 26.5099 16.776 26.5099C11.1696 26.5099 6.62475 22.0273 6.62475 16.4976C6.62475 15.3844 6.80896 14.3136 7.14894 13.3133C6.53145 13.4544 5.88816 13.529 5.22718 13.529C3.95279 13.529 2.74406 13.2517 1.65964 12.755ZM23.3454 31.4286H31.931V23.0922C30.9111 22.3327 29.6414 21.8823 28.265 21.8823C24.9019 21.8823 22.1756 24.5713 22.1756 27.8884C22.1756 29.2121 22.6098 30.4359 23.3454 31.4286Z" fill="#26827C"/>
<path d="M40.6348 14.7723H42.8227V6.28564H40.6348V14.7723Z" fill="#26827C"/>
<path d="M44.8145 14.7723H46.7688V10.9654C46.904 10.7593 47.1497 10.2259 47.7645 10.2259C48.3176 10.2259 48.6003 10.6017 48.6003 11.1473V14.7723H50.567V11.0624C50.567 11.0018 50.567 10.9533 50.567 10.9048L50.5792 10.9169C50.6776 10.7593 50.9234 10.2259 51.5379 10.2259C52.0912 10.2259 52.374 10.6017 52.374 11.1473V14.7723H54.3406V11.0624C54.3406 9.29235 53.3079 8.41943 52.0664 8.41943C51.1325 8.41943 50.5547 8.89225 50.1368 9.38932C49.7189 8.74677 49.0427 8.41943 48.2928 8.41943C47.6291 8.41943 47.1375 8.66189 46.7688 8.97713V8.66189H44.8145V14.7723Z" fill="#26827C"/>
<path d="M55.8828 17.7548H57.8372V14.4934C58.2799 14.8329 58.8329 15.0148 59.558 15.0148C61.5372 15.0148 62.6802 13.4993 62.6802 11.7171C62.6802 9.93489 61.5372 8.41943 59.558 8.41943C58.8329 8.41943 58.2799 8.60128 57.8372 8.94074V8.66189H55.8828V17.7548ZM57.8494 12.4445L57.8372 12.4566V10.9775L57.8494 10.9897C58.2181 10.4926 58.6486 10.2259 59.2752 10.2259C60.1358 10.2259 60.6644 10.8199 60.6644 11.7171C60.6644 12.6143 60.1358 13.2083 59.2752 13.2083C58.6486 13.2083 58.2181 12.9416 57.8494 12.4445Z" fill="#26827C"/>
<path d="M65.5523 15.0148C66.2037 15.0148 66.88 14.7238 67.2242 14.3237V14.7723H69.1908V10.9169C69.1908 9.58332 68.281 8.41943 66.3144 8.41943C65.1588 8.41943 64.2124 8.88013 63.6471 9.65604L65.0729 10.723C65.3065 10.2986 65.7366 10.0804 66.253 10.0804C66.8185 10.0804 67.1994 10.432 67.2242 10.8927L65.5031 11.1837C64.1509 11.414 63.4258 12.1414 63.4258 13.0871C63.4258 14.2873 64.2986 15.0148 65.5523 15.0148ZM65.3435 12.9901C65.3435 12.7112 65.5156 12.5415 66.0316 12.4566L67.2242 12.2627V12.8082C66.9781 13.1841 66.5972 13.4872 65.9824 13.4872C65.6015 13.4872 65.3435 13.2932 65.3435 12.9901Z" fill="#26827C"/>
<path d="M73.8172 13.2083C72.9814 13.2083 72.3913 12.6264 72.3913 11.7171C72.3913 10.8199 72.9814 10.2259 73.7802 10.2259C74.3087 10.2259 74.6777 10.4805 74.8987 10.8078L76.4478 9.64392C75.87 8.89225 74.948 8.41943 73.8049 8.41943C71.617 8.41943 70.3633 9.93489 70.3633 11.7171C70.3633 13.4993 71.617 15.0148 73.8049 15.0148C74.948 15.0148 75.87 14.5419 76.4478 13.7903L74.8987 12.6264C74.6777 12.9537 74.2965 13.2083 73.8172 13.2083Z" fill="#26827C"/>
<path d="M77.956 12.396C77.956 13.8993 78.6567 14.8935 80.3409 14.8935C80.9183 14.8935 81.2996 14.8208 81.6313 14.6753V13.0143C81.4469 13.0871 81.1519 13.1477 80.6973 13.1477C80.181 13.1477 79.9227 12.8809 79.9227 12.396V10.4077H81.619V8.66186H79.9227V7.13428H77.956V8.66186H76.8008V10.4077H77.956V12.396Z" fill="#26827C"/>
<path d="M44.5059 24.6896C43.129 24.6896 42.1459 23.6591 42.1459 22.2285C42.1459 20.81 43.129 19.7673 44.5059 19.7673C45.3662 19.7673 46.0177 20.1795 46.4233 20.7615L48.1564 19.4521C47.3576 18.4216 46.0791 17.7427 44.5059 17.7427C41.7647 17.7427 39.8965 19.8037 39.8965 22.2285C39.8965 24.6532 41.7647 26.7143 44.5059 26.7143C46.0791 26.7143 47.3576 26.0353 48.1564 24.9927L46.4233 23.6954C46.0177 24.2774 45.354 24.6896 44.5059 24.6896Z" fill="#26827C"/>
<path d="M53.4376 17.7427C50.6966 17.7427 48.8281 19.8037 48.8281 22.2285C48.8281 24.6532 50.6966 26.7143 53.4376 26.7143C56.1666 26.7143 58.0348 24.6532 58.0348 22.2285C58.0348 19.8037 56.1666 17.7427 53.4376 17.7427ZM53.4376 24.6896C52.061 24.6896 51.0775 23.6591 51.0775 22.2285C51.0775 20.81 52.061 19.7673 53.4376 19.7673C54.8019 19.7673 55.7854 20.7978 55.7854 22.2285C55.7854 23.6469 54.8019 24.6896 53.4376 24.6896Z" fill="#26827C"/>
<path d="M59.1174 26.4719H62.7755V25.3662H60.6516L61.7506 24.355C62.1707 23.9695 62.643 23.4239 62.643 22.7256C62.643 21.8163 61.8979 21.2344 60.9614 21.2344C59.9879 21.2344 59.3094 21.7218 58.8594 22.4492L59.8625 23.0602C60.1205 22.6383 60.3788 22.3255 60.836 22.3255C61.1532 22.3255 61.3816 22.5219 61.3816 22.8565C61.3816 23.1839 61.1458 23.4531 60.8948 23.6858L59.1174 25.3662V26.4719Z" fill="#26827C"/>
</g>
<defs>
<clipPath id="clip0_9231_35641">
<rect width="81.7143" height="33" fill="white" transform="translate(0.0664062)"/>
</clipPath>
</defs>
</svg>

<svg xmlns="http://www.w3.org/2000/svg" width="82" height="33" fill="none"><g fill="#26827C" clip-path="url(#a)"><path fill-rule="evenodd" d="M33.524 0v33H.066V0zM12.886 1.571H31.93v18.774a8.62 8.62 0 0 0-5.545-.614 9.9 9.9 0 0 0 .541-3.233c0-5.53-4.545-10.013-10.151-10.013-1.147 0-2.25.188-3.278.534a8.3 8.3 0 0 0 .208-1.853 8.2 8.2 0 0 0-.82-3.595M1.66 10.034V1.57h8.446a5.93 5.93 0 0 1 1.21 3.595c0 3.317-2.726 6.006-6.089 6.006a6.1 6.1 0 0 1-3.567-1.138m0 2.721v18.674h18.92a8.2 8.2 0 0 1-.794-3.54c0-.652.075-1.287.218-1.896-1.014.335-2.1.517-3.228.517-5.606 0-10.151-4.483-10.151-10.012a9.9 9.9 0 0 1 .524-3.185 8.6 8.6 0 0 1-1.922.216 8.55 8.55 0 0 1-3.567-.774m21.685 18.674h8.586v-8.337a6.1 6.1 0 0 0-3.666-1.21c-3.363 0-6.09 2.69-6.09 6.006 0 1.324.435 2.548 1.17 3.54" clip-rule="evenodd"/><path d="M40.635 14.772h2.188V6.286h-2.188zm4.18 0h1.954v-3.807c.135-.206.38-.74.995-.74.554 0 .836.377.836.922v3.625h1.967v-3.867l.012.012c.099-.158.344-.691.959-.691.553 0 .836.376.836.921v3.625h1.967v-3.71c0-1.77-1.033-2.643-2.275-2.643-.934 0-1.511.473-1.93.97-.417-.642-1.093-.97-1.843-.97a2.27 2.27 0 0 0-1.524.558v-.315h-1.954zm11.068 2.983h1.954v-3.262c.443.34.996.522 1.721.522 1.98 0 3.122-1.516 3.122-3.298S61.537 8.42 59.558 8.42c-.725 0-1.278.182-1.72.522v-.28h-1.955zm1.966-5.31-.012.012v-1.48l.012.013c.37-.497.8-.764 1.426-.764.86 0 1.39.594 1.39 1.491s-.53 1.491-1.39 1.491c-.626 0-1.057-.266-1.426-.764m7.703 2.571c.652 0 1.328-.291 1.672-.691v.448h1.967v-3.855c0-1.334-.91-2.498-2.877-2.498-1.155 0-2.102.461-2.667 1.237l1.426 1.067c.234-.424.664-.643 1.18-.643.566 0 .946.352.971.813l-1.72.29c-1.353.231-2.078.958-2.078 1.904 0 1.2.873 1.928 2.126 1.928m-.209-2.025c0-.279.173-.449.689-.533l1.192-.194v.545c-.246.376-.627.68-1.242.68-.38 0-.638-.195-.638-.498m8.473.218c-.836 0-1.426-.582-1.426-1.49 0-.898.59-1.492 1.39-1.492a1.3 1.3 0 0 1 1.118.582l1.549-1.164c-.578-.752-1.5-1.225-2.643-1.225-2.188 0-3.442 1.516-3.442 3.298s1.254 3.298 3.442 3.298c1.143 0 2.065-.473 2.643-1.225l-1.55-1.164a1.3 1.3 0 0 1-1.08.582m4.138-.812c0 1.503.7 2.497 2.385 2.497.577 0 .959-.072 1.29-.218v-1.66c-.184.072-.48.133-.934.133-.516 0-.774-.267-.774-.752v-1.988h1.696V8.662h-1.696V7.134h-1.967v1.528h-1.155v1.746h1.155zM44.506 24.69c-1.377 0-2.36-1.03-2.36-2.462 0-1.418.983-2.46 2.36-2.46.86 0 1.512.412 1.917.994l1.733-1.31c-.798-1.03-2.077-1.71-3.65-1.71-2.741 0-4.61 2.062-4.61 4.486s1.869 4.486 4.61 4.486c1.573 0 2.852-.679 3.65-1.721l-1.733-1.298a2.29 2.29 0 0 1-1.917.995m8.932-6.947c-2.741 0-4.61 2.06-4.61 4.486 0 2.424 1.869 4.485 4.61 4.485 2.729 0 4.597-2.06 4.597-4.485s-1.868-4.486-4.597-4.486m0 6.947c-1.377 0-2.36-1.03-2.36-2.462 0-1.418.983-2.46 2.36-2.46 1.364 0 2.347 1.03 2.347 2.46 0 1.419-.983 2.462-2.347 2.462m5.679 1.782h3.659v-1.106h-2.124l1.099-1.011c.42-.386.892-.931.892-1.63 0-.909-.745-1.49-1.682-1.49-.973 0-1.652.487-2.102 1.214l1.003.611c.258-.422.517-.734.974-.734.317 0 .546.196.546.53 0 .328-.236.597-.487.83l-1.778 1.68z"/></g><defs><clipPath id="a"><path fill="#fff" d="M.066 0H81.78v33H.066z"/></clipPath></defs></svg>
